X: 1
T:Newmarket House  "http://freespace.virgin.net/michael.clarke2/index.ht
M:C|
L:1/8
Q:80
C:R.S. Burns
S:Hornpipe
K:HP
|: {g}f3/4e/4|
{g}dB/2{gBd}B/2{g}B3/4c/4{gde}d3/4c/4|
{g}B3/4f/4{e}f3/4e/4{g}f{g}e3/4d/4|  !
{g}c/4{d}A3/4{g}A/4{d}A3/4{g}A3/4e/4{A}e3/4c/4|
{g}e/4f3/4{g}e/4f3/4{g}e/4f3/4{g}e/4f3/4| |
{g}dB/2{gBd}B/2{g}B3/4c/4{gde}d3/4c/4|  !
{g}B3/4f/4{e}f3/4e/4{g}f{g}e3/4d/4|
{g}c/4{d}A3/4{g}A/4{d}A3/4B/4f3/4{g}e3/4f/4|
{Gdc}dB{g}B/2{d}B/2:| |:  !
{g}d3/4e/4|
{g}fB/2{gBeBG}B/2{g}A{d}B/2{gBeBG}B/2|
{g}fB/2{gBeBG}B/2{g}f3/4e/4{g}c3/4d/4|  !
{g}eA/2{gAGAG}A/2aA/2{gAGAG}A/2|
{g}c/4{d}A3/4{g}c3/4d/4{g}e3/2f/4{g}d3/4e/4| |
{g}fB/2{gBeBG}B/2{g}A{d}B/2{gBeBG}B/2|  !
{g}fB/2{gBeBG}B/2{g}f{g}e3/4d/4|
{g}c/4{d}A3/4{g}A/4{d}A3/4B/4f3/4{g}e3/4f/4|
{Gdc}dB{g}B/2{d}B/2:| |:  !
f3/4e/4|
d3/4e/4{g}f3/4e/4{g}d3/4c/4{g}B/4{d}A3/4|
{g}B3/4f/4{e}f3/4e/4{g}f3/4e/4{g}c3/4d/4|  !
{gef}e3/4d/4{gcd}c3/4B/4{g}A/4B3/4{GdG}c3/4B/4|
{g}A3/4e/4{A}e3/4c/4{g}e/4f3/4{g}e/4f3/4| |
d3/4e/4{g}f3/4e/4{g}d3/4c/4{g}B/4{d}A3/4|  !
{g}B3/4f/4{e}f3/4e/4{g}f{g}e3/4d/4|
{g}c/4{d}A3/4{g}A/4{d}A3/4B/4f3/4{g}e3/4f/4|
{Gdc}dB{g}B/2{d}B/2:| |:  !
{g}f3/4e/4|
{g}d/4e3/4{g}c/4d3/4{g}B/4{d}c3/4{g}B/4A3/4|
{g}B3/4f/4{e}f3/4e/4{g}f3/4e/4{g}c3/4d/4|  !
{g}e/4f3/4{g}d/4e3/4{g}c/4d3/4{g}B/4{d}c3/4|
{g}A3/4{d}c/4{g}e3/4c/4a3/4c/4{g}e3/4c/4| |
{g}d/4e3/4{g}c/4d3/4{g}B/4{d}c3/4{g}B/4A3/4|  !
{g}B3/4f/4{e}f3/4e/4{g}f{g}e3/4d/4|
{g}c/4{d}A3/4{g}A/4{d}A3/4B/4f3/4{g}e3/4f/4|
{Gdc}dB{g}B/2{d}B/2:|  !
